icons/HSB-Collections/48x48/apps/google-chrome-beta.svg

<svg xmlns="http://www.w3.org/2000/svg" width="48" height="48" version="1">
 <circle style="opacity:0.2" cx="24" cy="25" r="20"/>
 <path style="fill:#dd4d3e" d="m 23.968987,4 c -7.005882,0 -13.131286,3.5921321 -16.6939378,9.026506 -0.125881,8.142666 5.0483208,10.98029 8.7992898,15.242074 -0.689964,-1.274337 -1.09236,-2.721584 -1.09236,-4.278775 0,-4.983408 4.038837,-6.44225 8.986509,-6.996362 l 17.848205,-1.99896 C 38.540612,8.4584816 31.798733,4.0001999 23.968488,4.0001999 Z"/>
 <path style="fill:#109f5b" d="m 8.9914724,34.005197 c 3.5029416,6.073242 7.4958466,7.625235 13.9790136,7.995842 6.912822,-3.814216 10.458,-6.663934 8.668287,-13.24991 -0.757862,1.235658 -1.808685,2.3076 -3.156062,3.086196 -2.140986,1.237356 -4.12331,-0.06317 -6.329997,-0.642696 -2.237141,-0.587465 -4.692655,-0.477172 -5.945774,-2.649822 L 7.281839,13.071853 c -2.7512492,4.184494 -3.8461267,9.290514 -3.0046247,14.274027 0.3869829,2.291776 2.4825244,2.521933 3.7157571,4.660357 z"/>
 <path style="fill:#ffce41" d="m 38.946502,33.005717 c 1.231916,-2.135839 4.397472,-3.417908 4.781025,-5.707684 0.707076,-4.221184 0.02226,-8.531471 -1.871303,-12.294955 l -17.586598,0.007 c 1.448026,0.03918 2.900845,0.414134 4.248222,1.19278 2.304141,1.331607 2.087566,3.962839 2.597201,6.367688 0.444024,2.095111 1.851021,3.910767 0.692061,5.920122 l -8.836624,12.510891 c 7.293052,0.427778 12.060894,-2.206852 15.976016,-8.995322 z"/>
 <rect style="opacity:0.2" width="18" height="18" x="-33.98" y="-33" rx="9" ry="9" transform="matrix(0,-1,-1,0,0,0)"/>
 <rect style="fill:#ffffff" width="18" height="18" x="-33" y="-33" rx="9" ry="9" transform="matrix(0,-1,-1,0,0,0)"/>
 <rect style="fill:#4587f3" width="14" height="14" x="-31" y="-31" rx="7" ry="7" transform="matrix(0,-1,-1,0,0,0)"/>
 <path style="fill:#4f4f4f" d="M 4.2407919,27.008835 A 19.97002,19.989605 0 0 0 23.968987,44 19.97002,19.989605 0 0 0 43.687432,27.008835 Z"/>
 <path style="opacity:0.2" d="m 14,30 v 0.999922 2.999768 0.999922 2.999767 0.999923 h 4 c 1.108,0 2,-1.391892 2,-2.499806 0,-0.691595 -0.348175,-1.494578 -0.878906,-1.999845 C 19.651825,33.994384 20,33.1914 20,32.499806 20,31.391892 19.108,30 18,30 h -3 z m 1,0.999922 h 3 c 0.571297,0 1,0.928631 1,1.499884 0,0.571253 -0.428703,1.499884 -1,1.499884 h -3 z m 12,0.499962 c 0,0.64797 0.0075,0.967078 0.0078,1.499883 H 26 v 0.999923 h 1.013672 c 0.01113,1.732209 0.04955,3.039418 0.255859,3.761427 0.14919,0.522121 0.473357,0.929887 0.894531,1.093665 C 28.585238,39.018559 29,38.999302 29.5,38.999302 v -0.999923 c -0.5,0 -0.833285,-0.02121 -0.974609,-0.07616 -0.141325,-0.05495 -0.192158,-0.08465 -0.292969,-0.437466 -0.139255,-0.487355 -0.184617,-1.760915 -0.207031,-3.486059 H 29 V 32.999767 H 28.015625 C 28.012608,32.464549 28,32.149424 28,31.499884 Z m -3.412109,1.499883 c -0.516739,0 -0.972222,0.122573 -1.365235,0.36716 -0.385735,0.244585 -0.68791,0.593591 -0.90625,1.046793 C 21.105343,34.866922 21,35.409456 21,36.0425 c 0,0.647432 0.116712,1.189965 0.349609,1.62878 0.240175,0.438815 0.572016,0.77106 0.994141,0.994064 0.422125,0.223005 0.912249,0.333958 1.472656,0.333958 0.400291,0 0.745989,-0.03291 1.03711,-0.09765 0.29112,-0.05755 0.586366,-0.149792 0.884765,-0.279276 V 37.79041 c -0.305677,0.129486 -0.60341,0.230776 -0.894531,0.30271 -0.283843,0.06474 -0.613196,0.09765 -0.984375,0.09765 -0.582241,0 -1.03577,-0.16967 -1.363281,-0.507773 -0.320236,-0.345297 -0.487403,-1.046414 -0.501953,-1.70104 H 22 v 0.01758 h 4 v -0.388642 c 0,-0.52514 -0.09841,-0.982529 -0.294922,-1.370988 -0.189229,-0.39565 -0.466177,-0.700134 -0.830078,-0.915944 -0.363901,-0.21581 -0.792203,-0.324194 -1.287109,-0.324194 z m 8.595703,0 c -0.400291,0 -0.745989,0.03291 -1.03711,0.09765 -0.29112,0.05755 -0.586366,0.149791 -0.884765,0.279275 v 0.831967 c 0.305677,-0.129486 0.60341,-0.230777 0.894531,-0.302711 0.283843,-0.06475 0.613196,-0.09765 0.984375,-0.09765 0.582241,0 1.03577,0.169669 1.363281,0.507772 0.152317,0.164236 0.268822,0.411378 0.351563,0.693306 l -0.625,0.01953 c -1.098101,0.03209 -1.909406,0.225156 -2.4375,0.57808 C 30.264874,35.95189 30,36.443708 30,37.085388 c 0,0.657718 0.201158,1.1441 0.603516,1.456918 0.402357,0.304798 0.909565,0.456996 1.521484,0.456996 0.561624,0 1.005116,-0.08349 1.332031,-0.251934 C 33.643892,38.65109 33.823762,38.515583 34,38.358727 v 0.107413 0.533162 h 1 V 35.999535 H 34.9961 C 34.996219,35.984235 35,35.971975 35,35.956565 35,35.309133 34.883288,34.7666 34.650391,34.327785 34.410216,33.88897 34.078375,33.556725 33.65625,33.333721 33.234125,33.110717 32.744001,32.999763 32.183594,32.999763 Z m -8.607422,0.777284 c 0.487627,0 0.844693,0.153525 1.070312,0.462854 0.152954,0.204825 0.236457,0.468925 0.289063,0.759707 h -2.824219 c 0.0803,-0.308025 0.192312,-0.5827 0.373047,-0.781189 0.269287,-0.294942 0.633282,-0.441372 1.091797,-0.441372 z M 15,34.999612 h 3 c 0.571297,0 1,0.928631 1,1.499884 0,0.571253 -0.428703,1.499883 -1,1.499883 h -3 z m 18.982422,0.740177 c 0.0075,0.08695 0.01921,0.173361 0.02148,0.259746 H 34 v 0.01758 1.462778 c -0.06439,0.07908 -0.133105,0.156074 -0.214844,0.220686 -0.37721,0.296777 -0.846579,0.445277 -1.408203,0.445277 -0.360445,0 -0.657869,-0.08544 -0.892578,-0.253886 -0.226326,-0.168441 -0.339844,-0.431963 -0.339844,-0.792908 0,-0.40907 0.15803,-0.726511 0.476563,-0.951097 0.326915,-0.224589 0.909802,-0.352653 1.748047,-0.384736 z"/>
 <path style="fill:#ffffff" d="m 14,29 v 0.999922 2.999768 0.999922 2.999767 0.999923 h 4 c 1.108,0 2,-1.391892 2,-2.499806 0,-0.691595 -0.348175,-1.494578 -0.878906,-1.999845 C 19.651825,32.994384 20,32.1914 20,31.499806 20,30.391892 19.108,29 18,29 h -3 z m 1,0.999922 h 3 c 0.571297,0 1,0.928631 1,1.499884 0,0.571253 -0.428703,1.499884 -1,1.499884 h -3 z m 12,0.499962 c 0,0.64797 0.0075,0.967078 0.0078,1.499883 H 26 v 0.999923 h 1.013672 c 0.01113,1.732209 0.04955,3.039418 0.255859,3.761427 0.14919,0.522121 0.473357,0.929887 0.894531,1.093665 C 28.585238,38.018559 29,37.999302 29.5,37.999302 v -0.999923 c -0.5,0 -0.833285,-0.02121 -0.974609,-0.07616 -0.141325,-0.05495 -0.192158,-0.08465 -0.292969,-0.437466 -0.139255,-0.487355 -0.184617,-1.760915 -0.207031,-3.486059 H 29 V 31.999767 H 28.015625 C 28.012608,31.464549 28,31.149424 28,30.499884 Z m -3.412109,1.499883 c -0.516739,0 -0.972222,0.122573 -1.365235,0.36716 -0.385735,0.244585 -0.68791,0.593591 -0.90625,1.046793 C 21.105343,33.866922 21,34.409456 21,35.0425 c 0,0.647432 0.116712,1.189965 0.349609,1.62878 0.240175,0.438815 0.572016,0.77106 0.994141,0.994064 0.422125,0.223005 0.912249,0.333958 1.472656,0.333958 0.400291,0 0.745989,-0.03291 1.03711,-0.09765 0.29112,-0.05755 0.586366,-0.149792 0.884765,-0.279276 V 36.79041 c -0.305677,0.129486 -0.60341,0.230776 -0.894531,0.30271 -0.283843,0.06474 -0.613196,0.09765 -0.984375,0.09765 -0.582241,0 -1.03577,-0.16967 -1.363281,-0.507773 -0.320236,-0.345297 -0.487403,-1.046414 -0.501953,-1.70104 H 22 v 0.01758 h 4 v -0.388642 c 0,-0.52514 -0.09841,-0.982529 -0.294922,-1.370988 -0.189229,-0.39565 -0.466177,-0.700134 -0.830078,-0.915944 -0.363901,-0.21581 -0.792203,-0.324194 -1.287109,-0.324194 z m 8.595703,0 c -0.400291,0 -0.745989,0.03291 -1.03711,0.09765 -0.29112,0.05755 -0.586366,0.149791 -0.884765,0.279275 v 0.831967 c 0.305677,-0.129486 0.60341,-0.230777 0.894531,-0.302711 0.283843,-0.06475 0.613196,-0.09765 0.984375,-0.09765 0.582241,0 1.03577,0.169669 1.363281,0.507772 0.152317,0.164236 0.268822,0.411378 0.351563,0.693306 l -0.625,0.01953 c -1.098101,0.03209 -1.909406,0.225156 -2.4375,0.57808 C 30.264874,34.95189 30,35.443708 30,36.085388 c 0,0.657718 0.201158,1.1441 0.603516,1.456918 0.402357,0.304798 0.909565,0.456996 1.521484,0.456996 0.561624,0 1.005116,-0.08349 1.332031,-0.251934 C 33.643892,37.65109 33.823762,37.515583 34,37.358727 v 0.107413 0.533162 h 1 V 34.999535 H 34.9961 C 34.996219,34.984235 35,34.971975 35,34.956565 35,34.309133 34.883288,33.7666 34.650391,33.327785 34.410216,32.88897 34.078375,32.556725 33.65625,32.333721 33.234125,32.110717 32.744001,31.999763 32.183594,31.999763 Z m -8.607422,0.777284 c 0.487627,0 0.844693,0.153525 1.070312,0.462854 0.152954,0.204825 0.236457,0.468925 0.289063,0.759707 h -2.824219 c 0.0803,-0.308025 0.192312,-0.5827 0.373047,-0.781189 0.269287,-0.294942 0.633282,-0.441372 1.091797,-0.441372 z M 15,33.999612 h 3 c 0.571297,0 1,0.928631 1,1.499884 0,0.571253 -0.428703,1.499883 -1,1.499883 h -3 z m 18.982422,0.740177 c 0.0075,0.08695 0.01921,0.173361 0.02148,0.259746 H 34 v 0.01758 1.462778 c -0.06439,0.07908 -0.133105,0.156074 -0.214844,0.220686 -0.37721,0.296777 -0.846579,0.445277 -1.408203,0.445277 -0.360445,0 -0.657869,-0.08544 -0.892578,-0.253886 -0.226326,-0.168441 -0.339844,-0.431963 -0.339844,-0.792908 0,-0.40907 0.15803,-0.726511 0.476563,-0.951097 0.326915,-0.224589 0.909802,-0.352653 1.748047,-0.384736 z"/>
 <path style="opacity:0.2;fill:#ffffff" d="M 24 4 A 20 20 0 0 0 4 24 A 20 20 0 0 0 4.0214844 24.582031 A 20 20 0 0 1 24 5 A 20 20 0 0 1 43.978516 24.417969 A 20 20 0 0 0 44 24 A 20 20 0 0 0 24 4 z"/>
</svg>

<svg xmlns="http://www.w3.org/2000/svg" width="48" height="48" version="1">
 <circle style="opacity:0.2" cx="24" cy="25" r="20"/>
 <path style="fill:#dd4d3e" d="M 23.969,4 C 16.963,4 10.838,7.592 7.275,13.026 7.149,21.169 12.323,24.006 16.074,28.268 15.384,26.994 14.982,25.546 14.982,23.989 14.982,19.006 19.021,17.547 23.969,16.993 L 41.817,14.994 C 38.541,8.459 31.799,4 23.968,4 Z"/>
 <path style="fill:#109f5b" d="M 6.695,34.042 C 10.198,40.115 16.369,41.629 22.852,42 29.765,38.186 33.429,35.337 31.639,28.751 30.881,29.987 29.83,31.059 28.483,31.837 26.342,33.074 24.36,31.774 22.153,31.194 19.916,30.607 17.46,30.717 16.207,28.544 L 7.282,13.072 C 3.265,19.181 2.779,27.254 6.694,34.042 Z"/>
 <path style="fill:#ffce41" d="M 41.319,33.987 C 44.822,27.914 44.777,20.808 41.856,15.003 L 24.269,15.01 C 25.717,15.049 27.17,15.424 28.517,16.203 30.821,17.535 30.605,20.166 31.114,22.571 31.558,24.666 33.087,26.557 31.806,28.491 L 22.883,41.963 C 30.176,42.391 37.404,40.776 41.319,33.987 Z"/>
 <path style="opacity:0.2;fill:#ffffff" d="M 24,4 A 20,20 0 0 0 4,24 20,20 0 0 0 4.0215,24.582 20,20 0 0 1 24,5 20,20 0 0 1 43.979,24.418 20,20 0 0 0 44,24 20,20 0 0 0 24,4 Z"/>
 <circle style="opacity:0.2" cx="24" cy="25" r="9"/>
 <circle style="fill:#ffffff" cx="24" cy="24" r="9"/>
 <circle style="fill:#4587f3" cx="24" cy="24" r="7"/>
 <path style="fill:#4f4f4f" d="M 4.241,27.009 A 19.97,19.99 0 0 0 23.969,44 19.97,19.99 0 0 0 43.687,27.009 Z"/>
 <path style="opacity:0.2" d="M 14,30 V 31 34 35 37.999 38.999 H 18 C 19.108,38.999 20,37.607 20,36.499 20,35.808 19.652,35.005 19.121,34.5 19.652,33.994 20,33.191 20,32.5 20,31.392 19.108,30 18,30 H 15 Z M 15,31 H 18 C 18.571,31 19,31.929 19,32.5 19,33.071 18.571,34 18,34 H 15 Z M 27,31.5 C 27,32.148 27.007,32.467 27.008,33 H 26 V 34 H 27.014 C 27.025,35.732 27.063,37.039 27.27,37.761 27.419,38.283 27.743,38.691 28.164,38.855 28.585,39.019 29,38.999 29.5,38.999 V 37.999 C 29,37.999 28.667,37.978 28.525,37.923 28.384,37.868 28.333,37.839 28.232,37.486 28.093,36.998 28.048,35.725 28.025,34 H 29 V 33 H 28.016 C 28.013,32.465 28,32.149 28,31.5 Z M 23.588,33 C 23.071,33 22.616,33.122 22.223,33.367 21.837,33.612 21.535,33.961 21.316,34.414 21.105,34.867 21,35.409 21,36.042 21,36.69 21.117,37.232 21.35,37.671 21.59,38.11 21.922,38.442 22.344,38.665 22.766,38.888 23.256,38.999 23.816,38.999 24.217,38.999 24.562,38.966 24.854,38.902 25.145,38.844 25.44,38.752 25.738,38.622 V 37.79 C 25.433,37.92 25.135,38.021 24.844,38.093 24.56,38.158 24.231,38.191 23.859,38.191 23.277,38.191 22.824,38.021 22.496,37.683 22.095,37.226 22.054,36.484 22,36 H 26 V 35.611 C 26,35.086 25.902,34.628 25.705,34.24 25.516,33.844 25.239,33.54 24.875,33.324 24.511,33.108 24.083,33 23.588,33 Z M 32.184,33 C 31.783,33 31.438,33.033 31.146,33.097 30.855,33.155 30.56,33.247 30.262,33.377 V 34.209 C 30.567,34.079 30.865,33.978 31.156,33.906 31.44,33.841 31.769,33.808 32.141,33.808 32.723,33.808 33.176,33.978 33.504,34.316 33.656,34.48 33.773,34.727 33.855,35.009 L 33.23,35.029 C 32.132,35.061 31.321,35.254 30.793,35.607 30.265,35.952 30,36.444 30,37.085 30,37.743 30.201,38.229 30.604,38.542 31.006,38.847 31.513,38.999 32.125,38.999 32.687,38.999 33.13,38.916 33.457,38.747 33.644,38.651 33.824,38.516 34,38.359 V 38.466 38.999 H 35 V 35.957 C 35,35.309 34.883,34.767 34.65,34.328 34.41,33.889 34.078,33.557 33.656,33.334 33.234,33.111 32.744,33 32.184,33 Z M 23.576,33.777 C 24.064,33.777 24.421,33.931 24.646,34.24 24.799,34.445 24.883,34.709 24.936,35 H 22.111 C 22.192,34.692 22.304,34.417 22.484,34.218 22.754,33.923 23.118,33.777 23.576,33.777 Z M 15,35 H 18 C 18.571,35 19,35.928 19,36.499 19,37.071 18.571,37.999 18,37.999 H 15 Z M 33.982,35.74 34,37.48 C 33.936,37.559 33.867,37.636 33.785,37.701 33.408,37.997 32.939,38.146 32.377,38.146 32.017,38.146 31.719,38.06 31.484,37.892 31.258,37.724 31.145,37.46 31.145,37.099 31.145,36.69 31.303,36.373 31.621,36.148 31.948,35.923 32.531,35.795 33.369,35.763 Z"/>
 <path style="fill:#ffffff" d="M 14,29 V 37.999 H 18 C 19.108,37.999 20,36.607 20,35.499 20,34.808 19.652,34.005 19.121,33.5 19.652,32.994 20,32.191 20,31.5 20,30.392 19.108,29 18,29 Z M 15,30 H 18 C 18.571,30 19,30.929 19,31.5 19,32.071 18.571,33 18,33 H 15 Z M 27,30.5 C 27,31.148 27.007,31.467 27.008,32 H 26 V 33 H 27.014 C 27.025,34.732 27.063,36.039 27.27,36.761 27.419,37.283 27.743,37.691 28.164,37.855 28.585,38.019 29,37.999 29.5,37.999 V 36.999 C 29,36.999 28.667,36.978 28.525,36.923 28.384,36.868 28.333,36.839 28.232,36.486 28.093,35.998 28.048,34.725 28.025,33 H 29 V 32 H 28.016 C 28.013,31.465 28,31.149 28,30.5 Z M 23.588,32 C 23.071,32 22.616,32.122 22.223,32.367 21.837,32.612 21.535,32.961 21.316,33.414 21.105,33.867 21,34.409 21,35.042 21,35.69 21.117,36.232 21.35,36.671 21.59,37.11 21.922,37.442 22.344,37.665 22.766,37.888 23.256,37.999 23.816,37.999 24.217,37.999 24.562,37.966 24.854,37.902 25.145,37.844 25.44,37.752 25.738,37.622 V 36.79 C 25.433,36.92 25.135,37.021 24.844,37.093 24.56,37.158 24.231,37.191 23.859,37.191 23.277,37.191 22.824,37.021 22.496,36.683 22.095,36.226 22.054,35.484 22,35 H 26 V 34.611 C 26,34.086 25.902,33.628 25.705,33.24 25.516,32.844 25.239,32.54 24.875,32.324 24.511,32.108 24.083,32 23.588,32 Z M 32.184,32 C 31.783,32 31.438,32.033 31.146,32.097 30.855,32.155 30.56,32.247 30.262,32.377 V 33.209 C 30.567,33.079 30.865,32.978 31.156,32.906 31.44,32.841 31.769,32.808 32.141,32.808 32.723,32.808 33.176,32.978 33.504,33.316 33.656,33.48 33.773,33.727 33.855,34.009 L 33.23,34.029 C 32.132,34.061 31.321,34.254 30.793,34.607 30.265,34.952 30,35.444 30,36.085 30,36.743 30.201,37.229 30.604,37.542 31.006,37.847 31.513,37.999 32.125,37.999 32.687,37.999 33.13,37.916 33.457,37.747 33.644,37.651 33.824,37.516 34,37.359 V 37.466 37.999 H 35 V 34.957 C 35,34.309 34.883,33.767 34.65,33.328 34.41,32.889 34.078,32.557 33.656,32.334 33.234,32.111 32.744,32 32.184,32 Z M 23.576,32.777 C 24.064,32.777 24.421,32.931 24.646,33.24 24.799,33.445 24.883,33.709 24.936,34 H 22.111 C 22.192,33.692 22.304,33.417 22.484,33.218 22.754,32.923 23.118,32.777 23.576,32.777 Z M 15,34 H 18 C 18.571,34 19,34.928 19,35.499 19,36.071 18.571,36.999 18,36.999 H 15 Z M 33.982,34.74 34,36.48 C 33.936,36.559 33.867,36.636 33.785,36.701 33.408,36.997 32.939,37.146 32.377,37.146 32.017,37.146 31.719,37.06 31.484,36.892 31.258,36.724 31.145,36.46 31.145,36.099 31.145,35.69 31.303,35.373 31.621,35.148 31.948,34.923 32.531,34.795 33.369,34.763 Z"/>
</svg>
